Iconos/clear.svg

<?xml version="1.0" encoding="UTF-8" standalone="no"?>
<!-- Created with Inkscape (http://www.inkscape.org/) -->

<svg
   xmlns:dc="http://purl.org/dc/elements/1.1/"
   xmlns:cc="http://creativecommons.org/ns#"
   xmlns:rdf="http://www.w3.org/1999/02/22-rdf-syntax-ns#"
   xmlns:svg="http://www.w3.org/2000/svg"
   xmlns="http://www.w3.org/2000/svg"
   xmlns:xlink="http://www.w3.org/1999/xlink"
   xmlns:sodipodi="http://sodipodi.sourceforge.net/DTD/sodipodi-0.dtd"
   xmlns:inkscape="http://www.inkscape.org/namespaces/inkscape"
   width="39.61742"
   height="50.023342"
   id="svg2"
   sodipodi:version="0.32"
   inkscape:version="0.48.5 r10040"
   version="1.0"
   sodipodi:docname="clear.svg"
   inkscape:output_extension="org.inkscape.output.svg.inkscape">
  <defs
     id="defs4">
    <linearGradient
       inkscape:collect="always"
       id="linearGradient6019">
      <stop
         style="stop-color:#000000;stop-opacity:1;"
         offset="0"
         id="stop6021" />
      <stop
         style="stop-color:#000000;stop-opacity:0;"
         offset="1"
         id="stop6023" />
    </linearGradient>
    <linearGradient
       inkscape:collect="always"
       id="linearGradient5999">
      <stop
         style="stop-color:#999999;stop-opacity:1;"
         offset="0"
         id="stop6001" />
      <stop
         style="stop-color:#999999;stop-opacity:0;"
         offset="1"
         id="stop6003" />
    </linearGradient>
    <linearGradient
       id="linearGradient5981"
       inkscape:collect="always">
      <stop
         id="stop5983"
         offset="0"
         style="stop-color:#ffffff;stop-opacity:1;" />
      <stop
         id="stop5985"
         offset="1"
         style="stop-color:#ffffff;stop-opacity:0.69411765" />
    </linearGradient>
    <linearGradient
       id="linearGradient5996">
      <stop
         style="stop-color:#000000;stop-opacity:1;"
         offset="0"
         id="stop5998" />
      <stop
         style="stop-color:#4d4d4d;stop-opacity:1"
         offset="1"
         id="stop6000" />
    </linearGradient>
    <linearGradient
       inkscape:collect="always"
       id="linearGradient5984">
      <stop
         style="stop-color:#ffffff;stop-opacity:1;"
         offset="0"
         id="stop5986" />
      <stop
         style="stop-color:#ffffff;stop-opacity:0.13438736"
         offset="1"
         id="stop5988" />
    </linearGradient>
    <linearGradient
       id="linearGradient5958">
      <stop
         style="stop-color:#666666;stop-opacity:1;"
         offset="0"
         id="stop5960" />
      <stop
         style="stop-color:#b3b3b3;stop-opacity:1;"
         offset="1"
         id="stop5962" />
    </linearGradient>
    <linearGradient
       inkscape:collect="always"
       xlink:href="#linearGradient5984"
       id="linearGradient5994"
       gradientUnits="userSpaceOnUse"
       x1="28"
       y1="8"
       x2="33.447109"
       y2="16.685888" />
    <linearGradient
       inkscape:collect="always"
       xlink:href="#linearGradient5981"
       id="linearGradient5973"
       gradientUnits="userSpaceOnUse"
       x1="22.319767"
       y1="41.955986"
       x2="18.985712"
       y2="37.029255"
       gradientTransform="translate(-2,0)" />
    <linearGradient
       inkscape:collect="always"
       xlink:href="#linearGradient5999"
       id="linearGradient6005"
       x1="27.354809"
       y1="36.218422"
       x2="23.489431"
       y2="34.728424"
       gradientUnits="userSpaceOnUse"
       gradientTransform="translate(-2,0)" />
    <radialGradient
       inkscape:collect="always"
       xlink:href="#linearGradient6019"
       id="radialGradient6025"
       cx="38"
       cy="69"
       fx="28.603323"
       fy="69"
       r="20"
       gradientTransform="matrix(1,0,0,0.45,0,37.95)"
       gradientUnits="userSpaceOnUse" />
  </defs>
  <sodipodi:namedview
     id="base"
     pagecolor="#ffffff"
     bordercolor="#f6aaaa"
     borderopacity="1"
     inkscape:pageopacity="0.0"
     inkscape:pageshadow="2"
     inkscape:zoom="3.9999998"
     inkscape:cx="32.169797"
     inkscape:cy="1.6886953"
     inkscape:document-units="px"
     inkscape:current-layer="layer1"
     width="48px"
     height="48px"
     inkscape:showpageshadow="false"
     showgrid="false"
     inkscape:grid-points="true"
     inkscape:window-width="1366"
     inkscape:window-height="706"
     inkscape:window-x="0"
     inkscape:window-y="27"
     inkscape:object-paths="true"
     inkscape:object-nodes="true"
     objecttolerance="6"
     gridtolerance="6"
     guidetolerance="6"
     showborder="false"
     inkscape:window-maximized="1"
     fit-margin-top="0"
     fit-margin-left="0"
     fit-margin-right="0"
     fit-margin-bottom="0">
    <inkscape:grid
       type="xygrid"
       id="grid5333"
       spacingx="0.5px"
       spacingy="0.5px"
       empspacing="2"
       visible="true"
       enabled="true"
       snapvisiblegridlinesonly="true"
       originx="-1.5676207px"
       originy="0.49733481px" />
    <inkscape:grid
       id="GridFromPre046Settings"
       type="xygrid"
       originx="-1.5676207px"
       originy="0.49733481px"
       spacingx="0.5px"
       spacingy="0.5px"
       color="#3f3fff"
       empcolor="#3f3fff"
       opacity="0.15"
       empopacity="0.38"
       empspacing="2"
       visible="true"
       enabled="true"
       snapvisiblegridlinesonly="true" />
  </sodipodi:namedview>
  <metadata
     id="metadata7">
    <rdf:RDF>
      <cc:Work
         rdf:about="">
        <dc:format>image/svg+xml</dc:format>
        <dc:type
           rdf:resource="http://purl.org/dc/dcmitype/StillImage" />
        <dc:creator>
          <cc:Agent>
            <dc:title>Ulisse Perusin</dc:title>
          </cc:Agent>
        </dc:creator>
        <cc:license
           rdf:resource="http://creativecommons.org/licenses/GPL/2.0/" />
        <dc:source>uli.peru@gmail.com</dc:source>
        <dc:title>edit-clear</dc:title>
      </cc:Work>
    </rdf:RDF>
  </metadata>
  <g
     inkscape:label="Livello 1"
     inkscape:groupmode="layer"
     id="layer1"
     transform="translate(-1.5676207,1.526007)">
    <g
       id="g3010"
       transform="matrix(1.1441605,0,0,1.1441605,-3.1162863,-3.3831927)">
      <path
         sodipodi:nodetypes="scccsssssss"
         inkscape:connector-curvature="0"
         id="path5371"
         d="m 34.59375,2.46875 c -8.203217,0.1056503 -6.886182,11.800903 -9.239382,14.709627 l 4,1.4375 C 31.986241,14.24333 42.599746,4.1545034 35.40625,2.5 35.12676,2.4690309 34.85837,2.4653419 34.59375,2.46875 z m -1.03125,2.0625 c 0.193563,-0.018739 0.367986,0.00572 0.53125,0.09375 0.653056,0.3521226 0.723655,1.4948771 0.15625,2.53125 -0.567405,1.0363729 -1.565696,1.6021225 -2.21875,1.25 C 31.378197,8.0541272 31.307595,6.9113729 31.875,5.875 32.300554,5.0977202 32.981812,4.5874659 33.5625,4.53125 z"
         style="fill:none;stroke:#000000;stroke-width:1.70000005;stroke-linecap:butt;stroke-linejoin:miter;stroke-miterlimit:9.33333302;stroke-opacity:1;stroke-dasharray:none" />
      <path
         sodipodi:nodetypes="cccccccccccccccc"
         id="path5367"
         d="m 20.5,16.5 c 0.709506,2.003007 -0.541388,3.737831 -1,5 C 14.308433,23.045674 10.713199,31.203726 5.3674175,35.453585 6.0352055,36.150983 6.819644,36.897763 7.5,37.5 l 4.0625,-3.53125 -3.067556,4.524649 C 10.704181,40.284382 13,41.5 14.5,42 L 17.25,38.34375 15.5,42.5 c 1.451994,0.588882 4.985286,1.482025 7,1.5 l 2.00389,-3.402497 -0.513169,3.464997 c 0.829563,0.158359 2.438165,0.374216 3.509279,0.40625 3.362186,-5.5 4,-14.46875 2,-18.46875 -0.5,-2 1.5,-4.5 3,-5.5 -2.5,-2 -8.205589,-4.303726 -12,-4 z"
         style="fill:none;stroke:#000000;stroke-width:1.70000005;stroke-linecap:butt;stroke-linejoin:miter;stroke-miterlimit:9.33333302;stroke-opacity:1;stroke-dasharray:none"
         inkscape:connector-curvature="0" />
      <path
         sodipodi:nodetypes="ccccc"
         id="path5373"
         d="m 18.650133,21.5 c -0.48841,-1 0,-2 0.97682,-2 3.99144,0.975417 7.324875,2.206232 10.745012,4 0.48841,1 0,2 -0.976819,2 -3.533943,-1.86442 -6.866711,-3.074813 -10.745013,-4 z"
         style="fill:none;stroke:#000000;stroke-width:1.70000005;stroke-linecap:butt;stroke-linejoin:round;stroke-miterlimit:9.33333302;stroke-opacity:1;stroke-dasharray:none"
         inkscape:connector-curvature="0" />
    </g>
  </g>
</svg>

<?xml version="1.0" encoding="UTF-8" standalone="no"?>
<!-- Created with Inkscape (http://www.inkscape.org/) -->

<svg
   xmlns:dc="http://purl.org/dc/elements/1.1/"
   xmlns:cc="http://creativecommons.org/ns#"
   xmlns:rdf="http://www.w3.org/1999/02/22-rdf-syntax-ns#"
   xmlns:svg="http://www.w3.org/2000/svg"
   xmlns="http://www.w3.org/2000/svg"
   xmlns:xlink="http://www.w3.org/1999/xlink"
   xmlns:sodipodi="http://sodipodi.sourceforge.net/DTD/sodipodi-0.dtd"
   xmlns:inkscape="http://www.inkscape.org/namespaces/inkscape"
   width="48"
   height="48"
   id="svg2"
   sodipodi:version="0.32"
   inkscape:version="0.48.4 r9939"
   version="1.0"
   sodipodi:docname="Gnome-edit-clear.svg"
   inkscape:output_extension="org.inkscape.output.svg.inkscape">
  <defs
     id="defs4">
    <linearGradient
       inkscape:collect="always"
       id="linearGradient6019">
      <stop
         style="stop-color:#000000;stop-opacity:1;"
         offset="0"
         id="stop6021" />
      <stop
         style="stop-color:#000000;stop-opacity:0;"
         offset="1"
         id="stop6023" />
    </linearGradient>
    <linearGradient
       inkscape:collect="always"
       id="linearGradient5999">
      <stop
         style="stop-color:#999999;stop-opacity:1;"
         offset="0"
         id="stop6001" />
      <stop
         style="stop-color:#999999;stop-opacity:0;"
         offset="1"
         id="stop6003" />
    </linearGradient>
    <linearGradient
       id="linearGradient5981"
       inkscape:collect="always">
      <stop
         id="stop5983"
         offset="0"
         style="stop-color:#ffffff;stop-opacity:1;" />
      <stop
         id="stop5985"
         offset="1"
         style="stop-color:#ffffff;stop-opacity:0.69411765" />
    </linearGradient>
    <linearGradient
       id="linearGradient5996">
      <stop
         style="stop-color:#000000;stop-opacity:1;"
         offset="0"
         id="stop5998" />
      <stop
         style="stop-color:#4d4d4d;stop-opacity:1"
         offset="1"
         id="stop6000" />
    </linearGradient>
    <linearGradient
       inkscape:collect="always"
       id="linearGradient5984">
      <stop
         style="stop-color:#ffffff;stop-opacity:1;"
         offset="0"
         id="stop5986" />
      <stop
         style="stop-color:#ffffff;stop-opacity:0.13438736"
         offset="1"
         id="stop5988" />
    </linearGradient>
    <linearGradient
       id="linearGradient5958">
      <stop
         style="stop-color:#666666;stop-opacity:1;"
         offset="0"
         id="stop5960" />
      <stop
         style="stop-color:#b3b3b3;stop-opacity:1;"
         offset="1"
         id="stop5962" />
    </linearGradient>
    <linearGradient
       inkscape:collect="always"
       xlink:href="#linearGradient5984"
       id="linearGradient5994"
       gradientUnits="userSpaceOnUse"
       x1="28"
       y1="8"
       x2="33.447109"
       y2="16.685888" />
    <linearGradient
       inkscape:collect="always"
       xlink:href="#linearGradient5981"
       id="linearGradient5973"
       gradientUnits="userSpaceOnUse"
       x1="22.319767"
       y1="41.955986"
       x2="18.985712"
       y2="37.029255"
       gradientTransform="translate(-2,0)" />
    <linearGradient
       inkscape:collect="always"
       xlink:href="#linearGradient5999"
       id="linearGradient6005"
       x1="27.354809"
       y1="36.218422"
       x2="23.489431"
       y2="34.728424"
       gradientUnits="userSpaceOnUse"
       gradientTransform="translate(-2,0)" />
    <radialGradient
       inkscape:collect="always"
       xlink:href="#linearGradient6019"
       id="radialGradient6025"
       cx="38"
       cy="69"
       fx="28.603323"
       fy="69"
       r="20"
       gradientTransform="matrix(1,0,0,0.45,0,37.95)"
       gradientUnits="userSpaceOnUse" />
  </defs>
  <sodipodi:namedview
     id="base"
     pagecolor="#ffffff"
     bordercolor="#f6aaaa"
     borderopacity="1"
     inkscape:pageopacity="0.0"
     inkscape:pageshadow="2"
     inkscape:zoom="5.656854"
     inkscape:cx="13.930577"
     inkscape:cy="24.848345"
     inkscape:document-units="px"
     inkscape:current-layer="layer1"
     width="48px"
     height="48px"
     inkscape:showpageshadow="false"
     showgrid="false"
     inkscape:grid-points="true"
     inkscape:window-width="1366"
     inkscape:window-height="713"
     inkscape:window-x="0"
     inkscape:window-y="27"
     inkscape:object-paths="true"
     inkscape:object-nodes="true"
     objecttolerance="6"
     gridtolerance="6"
     guidetolerance="6"
     showborder="false"
     inkscape:window-maximized="1">
    <inkscape:grid
       type="xygrid"
       id="grid5333"
       spacingx="0.5px"
       spacingy="0.5px"
       empspacing="2" />
    <inkscape:grid
       id="GridFromPre046Settings"
       type="xygrid"
       originx="0px"
       originy="0px"
       spacingx="0.5px"
       spacingy="0.5px"
       color="#3f3fff"
       empcolor="#3f3fff"
       opacity="0.15"
       empopacity="0.38"
       empspacing="2" />
  </sodipodi:namedview>
  <metadata
     id="metadata7">
    <rdf:RDF>
      <cc:Work
         rdf:about="">
        <dc:format>image/svg+xml</dc:format>
        <dc:type
           rdf:resource="http://purl.org/dc/dcmitype/StillImage" />
        <dc:creator>
          <cc:Agent>
            <dc:title>Ulisse Perusin</dc:title>
          </cc:Agent>
        </dc:creator>
        <cc:license
           rdf:resource="http://creativecommons.org/licenses/GPL/2.0/" />
        <dc:source>uli.peru@gmail.com</dc:source>
        <dc:title>edit-clear</dc:title>
      </cc:Work>
    </rdf:RDF>
  </metadata>
  <g
     inkscape:label="Livello 1"
     inkscape:groupmode="layer"
     id="layer1">
    <path
       sodipodi:type="arc"
       style="opacity:0.25;fill:url(#radialGradient6025);fill-opacity:1;stroke:none;stroke-width:0.99999994;stroke-linecap:round;stroke-linejoin:round;stroke-miterlimit:20;stroke-dasharray:none;stroke-opacity:1"
       id="path6017"
       sodipodi:cx="38"
       sodipodi:cy="69"
       sodipodi:rx="20"
       sodipodi:ry="9"
       d="M 58,69 A 20,9 0 1 1 18,69 A 20,9 0 1 1 58,69 z"
       transform="matrix(1,0,0,0.6666668,-13.999999,-5.0000087)" />
    <path
       style="fill:#ffffff;fill-opacity:1;fill-rule:evenodd;stroke:#000000;stroke-width:1.7;stroke-linecap:butt;stroke-linejoin:miter;stroke-opacity:1;stroke-miterlimit:9.33333302;stroke-dasharray:none"
       d="M 34.59375,2.46875 C 26.390533,2.5744003 25.19695,18.716276 22.84375,21.625 L 26.84375,23.0625 C 29.475623,18.689953 42.599746,4.1545034 35.40625,2.5 C 35.12676,2.4690309 34.85837,2.4653419 34.59375,2.46875 z M 33.5625,4.53125 C 33.756063,4.5125114 33.930486,4.5369694 34.09375,4.625 C 34.746806,4.9771226 34.817405,6.1198771 34.25,7.15625 C 33.682595,8.1926229 32.684304,8.7583725 32.03125,8.40625 C 31.378197,8.0541272 31.307595,6.9113729 31.875,5.875 C 32.300554,5.0977202 32.981812,4.5874659 33.5625,4.53125 z"
       id="path5371" />
    <path
       style="fill:#ffffff;fill-opacity:1;fill-rule:evenodd;stroke:#000000;stroke-width:1.7;stroke-linecap:butt;stroke-linejoin:miter;stroke-miterlimit:9.33333302;stroke-dasharray:none;stroke-opacity:1"
       d="M 20.5,16.5 C 21.209506,18.503007 19.958612,20.237831 19.5,21.5 C 14.308433,23.045674 10.713199,31.203726 5.3674175,35.453585 C 6.0352055,36.150983 6.819644,36.897763 7.5,37.5 L 11.5625,33.96875 L 8.494944,38.493399 C 10.704181,40.284382 13,41.5 14.5,42 L 17.25,38.34375 L 15.5,42.5 C 16.951994,43.088882 20.485286,43.982025 22.5,44 L 24.50389,40.597503 L 23.990721,44.0625 C 24.820284,44.220859 26.428886,44.436716 27.5,44.46875 C 30.862186,38.96875 31.5,30 29.5,26 C 29,24 31,21.5 32.5,20.5 C 30,18.5 24.294411,16.196274 20.5,16.5 z"
       id="path5367"
       sodipodi:nodetypes="cccccccccccccccc" />
    <path
       style="fill:#ffffff;fill-opacity:1;fill-rule:evenodd;stroke:#000000;stroke-width:1.7;stroke-linecap:butt;stroke-linejoin:round;stroke-opacity:1;stroke-miterlimit:9.33333302;stroke-dasharray:none"
       d="M 18.650133,21.5 C 18.161723,20.5 18.650133,19.5 19.626953,19.5 C 23.618393,20.475417 26.951828,21.706232 30.371965,23.5 C 30.860375,24.5 30.371965,25.5 29.395146,25.5 C 25.861203,23.63558 22.528435,22.425187 18.650133,21.5 z"
       id="path5373"
       sodipodi:nodetypes="ccccc" />
  </g>
</svg>
